src/images/icons/warning.svg

<svg xmlns="http://www.w3.org/2000/svg" width="16" height="16" fill="none"><path fill="#00112C" d="M8.75 4.58008H7.25V9.08008H8.75V4.58008Z"/><path fill="#00112C" d="M8.71 10.6201C8.57 10.4801 8.39 10.3801 8.2 10.3501C8.01 10.3101 7.8 10.3301 7.62 10.4101C7.44 10.4901 7.28 10.6101 7.17 10.7801C7.06 10.9401 7 11.1401 7 11.3401C7 11.6101 7.11 11.8601 7.29 12.0501C7.48 12.2401 7.73 12.3401 8 12.3401C8.2 12.3401 8.39 12.2801 8.56 12.1701C8.72 12.0601 8.85 11.9001 8.93 11.7201C9.01 11.5401 9.03 11.3401 8.99 11.1401C8.95 10.9501 8.86 10.7701 8.72 10.6301L8.71 10.6201Z"/><path fill="#00112C" d="M9.9501 2.21008L15.3501 11.5301V11.5201C15.5501 11.8601 15.6501 12.2501 15.6501 12.6501C15.6501 13.0501 15.5501 13.4401 15.3501 13.7801C15.1501 14.1201 14.8601 14.4001 14.5201 14.6001C14.1801 14.8001 13.7901 14.9001 13.4001 14.9001H2.6001C2.2001 14.9001 1.8101 14.8001 1.4701 14.6001C1.1301 14.4101 0.850097 14.1201 0.650097 13.7801C0.450097 13.4501 0.350098 13.0601 0.350098 12.6601C0.350098 12.2601 0.450097 11.8701 0.650097 11.5301L6.0601 2.20008C6.2501 1.86008 6.5401 1.58008 6.8801 1.38008C7.5601 0.980078 8.4401 0.980078 9.1301 1.38008C9.4701 1.58008 9.7501 1.87008 9.9501 2.21008ZM13.7701 13.3001C13.8901 13.2401 13.9801 13.1401 14.0501 13.0301L14.0601 13.0401C14.1301 12.9201 14.1601 12.7901 14.1601 12.6601C14.1601 12.5301 14.1301 12.4001 14.0601 12.2901L8.6601 2.96008C8.5901 2.84008 8.5001 2.74008 8.3801 2.68008C8.2601 2.62008 8.1401 2.58008 8.0001 2.58008C7.8601 2.58008 7.7301 2.61008 7.6201 2.68008C7.5101 2.74008 7.4201 2.84008 7.3501 2.95008L1.9501 12.2901C1.8801 12.4001 1.8501 12.5301 1.8501 12.6601C1.8501 12.7901 1.8801 12.9201 1.9501 13.0301C2.0101 13.1401 2.1101 13.2401 2.2201 13.3001C2.3401 13.3601 2.4701 13.4001 2.6001 13.4001H13.3901C13.5301 13.4001 13.6601 13.3701 13.7701 13.3001Z"/></svg>

<svg xmlns="http://www.w3.org/2000/svg" fill="none" viewBox="0 0 16 16"><path fill="currentColor" d="M8.75 4.58h-1.5v4.5h1.5zm-.04 6.04a1 1 0 0 0-.51-.27 1 1 0 0 0-1.2.99q.01.41.29.71.3.29.71.29.3 0 .56-.17.24-.17.37-.45.12-.28.06-.58a1 1 0 0 0-.27-.51z"/><path fill="currentColor" d="m9.95 2.21 5.4 9.32v-.01q.3.52.3 1.13a2.2 2.2 0 0 1-1.13 1.95q-.52.3-1.12.3H2.6a2.2 2.2 0 0 1-1.95-1.12q-.3-.5-.3-1.12 0-.61.3-1.13L6.06 2.2q.3-.52.82-.82a2.26 2.26 0 0 1 3.07.83m3.82 11.09a1 1 0 0 0 .28-.27l.01.01q.1-.18.1-.38a1 1 0 0 0-.1-.37l-5.4-9.33a1 1 0 0 0-.28-.28 1 1 0 0 0-.38-.1 1 1 0 0 0-.38.1 1 1 0 0 0-.27.27l-5.4 9.34a1 1 0 0 0-.1.37q0 .2.1.37a1 1 0 0 0 .27.27q.18.1.38.1h10.79a1 1 0 0 0 .38-.1"/></svg>
